X:5
T:Jeune fille de quinze ans
R:hanter dro
O:Bretagne
Z:id:hn-hanterdro-5
M:3/4
L:1/8
K:Am
ee/f/ ed c2 | ed/c/ Bd cA | ee/f/ ed c2 | ed/c/ BG A2 :|
|: AA/B/ cd e2 | ed/e/ aa e2 | cd/e/ fe d2 | Bc/d/ cB A2 :|
W:Jeune fille de quinze ans, belle comme une rose,
W:Elle a eu un enfant, personne n'en est la cause.
W:Ne sachant comment faire, pour s'en d\'ebarrasser,
W:Dans la rivi\`ere de Nantes, elle s'en va l'y jeter.
W:
W:Personne ne l'avait vue, que sa plus proche voisine.
W:S'en va directement, pr\'evenir la Justice.
W:Messieurs de la Justice, vous ne savez donc pas,
W:Ce qui se passe en ville, si on vous le dit pas.
W:
W:Les gendarmes sont all\'es, tout droit de chez la belle.
W:L'ont trouv\'ee dans son lit, sa m\`ere \`a c\^ot\'e d'elle. 
W:Bonjour, bonjour, la belle, comment vous portez vous?
W:Les gens de la Justice, ils ont affaire \`a vous.
W:
W:Si j'ai eu un enfant, comprenez ma d\'etresse.
W:De mon coeur innocent, je ne suis point la ma\^itresse.
W:Allons, allons, la belle, point tant de boniments.
W:A pied ou \`a cheval, vous irez en avant.
W:
W:Sa m\`ere qui \'etait l\`a, qui haussait les \'epaules.
W:Prit l'argent dans ses mains, comme une femme folle.
W:Messieurs de la justice, rendez moi mon enfant.
W:Je vous la paierai, en or ou en argent.
W:
W:En or ou en argent, vous n'aurez pas votre fille.
W:Elle a commis un crime, il faudra la punir.
W:L\`a-bas dans ces collines, y'a un jardin autour.
W:La belle sera br\^ul\'ee, demain au petit jour.
W:
W:Jeune fille de quinze ans, sur moi prenez exemple.
W:Ne fr\'equentez donc pas, ces galants sur ces landes.
W:Ne courez pas ces bals, et ces f\^etes de nuits,
W:Car c'est ici la cause, que je meurs aujourd'hui.

